src/main/resources/icons/DatabaseIcons/icons/colDot_dark.svg

<svg xmlns="http://www.w3.org/2000/svg" width="16" height="16" viewBox="0 0 16 16">
  <g fill="#9AA7B0" fill-rule="evenodd" transform="matrix(-1 0 0 1 15 2)">
    <path fill-opacity=".8" d="M14,8.33681558 C13.5453723,8.12084552 13.0367986,8 12.5,8 C10.5670034,8 9,9.56700338 9,11.5 C9,11.6697607 9.01208598,11.8366985 9.03544443,12 L9,12 L9,0 L14,0 L14,8.33681558 Z"/>
    <path d="M1,11 L4,11 L4,9 L1,9 L1,11 Z M1,12 L0,12 L0,3 L0,0 L8,0 L8,3 L5,3 L5,5 L8,5 L8,6 L5,6 L5,8 L8,8 L8,9 L5,9 L5,11 L8,11 L8,12 L1,12 Z M1,8 L4,8 L4,6 L1,6 L1,8 Z M1,5 L4,5 L4,3 L1,3 L1,5 Z"/>
    <circle cx="12.5" cy="11.5" r="2.5"/>
  </g>
</svg>

<svg xmlns="http://www.w3.org/2000/svg" width="16" height="16" viewBox="0 0 16 16"><rect id="frame" width="16" height="16" fill="none"/><g fill="#9AA7B0" fill-rule="evenodd" transform="matrix(-1 0 0 1 15 2)"><path fill-opacity=".8" d="M14 8.337A3.5 3.5 0 0 0 9.035 12H9V0h5v8.337z"/><path d="M1 11h3V9H1v2zm0 1H0V0h8v3H5v2h3v1H5v2h3v1H5v2h3v1H1zm0-4h3V6H1v2zm0-3h3V3H1v2z"/><circle cx="12.5" cy="11.5" r="2.5"/></g></svg>
